public/assets/images/icons/handwave.svg

<svg width="20" height="21" viewBox="0 0 20 21" fill="none" xmlns="http://www.w3.org/2000/svg">
<g clip-path="url(#clip0_45_15)">
<path d="M19.4166 7.83335C19.1666 7.58335 18.8333 7.45835 18.5416 7.41669L19.0833 6.79169C19.7499 6.04169 19.6666 4.91669 18.9166 4.29169C18.6666 4.04169 18.3333 3.91669 18.0416 3.87502L18.3333 3.54169C18.9999 2.79169 18.9166 1.66669 18.1666 1.04169C17.4166 0.375019 16.2916 0.458353 15.6666 1.20835L15.1249 1.83335C15.0416 1.50002 14.8333 1.20835 14.5833 1.00002C13.8333 0.333352 12.7083 0.416686 12.0833 1.16669L9.33328 4.25002C9.20828 3.20835 8.54161 2.79169 7.99994 2.29169C7.83328 2.12502 7.58328 2.16669 7.41661 2.33335L1.87494 8.58335C-0.83339 11.4584 -0.541723 16.0417 2.45828 18.7084C5.66661 21.5417 10.0416 20.4584 11.1249 19.4167C12.3333 18.6667 12.1249 18.75 19.5416 10.375C20.2083 9.62502 20.1249 8.50002 19.4166 7.83335ZM2.45828 9.04169L7.70828 3.12502C8.12494 3.50002 8.41661 3.79169 8.45828 4.41669C8.49994 4.83335 8.33328 5.25002 8.08328 5.54169L6.24994 7.58335C6.08328 7.75002 6.12494 8.04169 6.33328 8.20835C8.83328 10.0417 6.29161 16.1667 4.58328 19.0834C4.04161 18.8334 3.49994 18.5 2.99994 18.0834C0.333277 15.7084 0.0832772 11.6667 2.45828 9.04169ZM5.37494 19.375C6.83328 16.8334 7.58328 14.7917 7.91661 13.25C8.79161 14.0417 10.4999 16 10.4166 18.8334C8.87494 19.7084 7.04161 19.9167 5.37494 19.375ZM18.9166 9.79169C11.4166 18.25 11.8749 17.7917 11.2499 18.2917C11.0833 14.9584 8.79161 12.9167 8.08328 12.3334C8.45828 9.83335 7.87494 8.62502 7.16661 7.87502C7.20828 7.83335 12.6666 1.66669 12.6666 1.66669C12.9999 1.29169 13.6249 1.25002 13.9999 1.58335C14.3749 1.91669 14.4166 2.54169 14.0833 2.91669L8.95828 8.66669C8.79161 8.83335 8.83328 9.08335 8.99994 9.25002C9.16661 9.41669 9.41661 9.37502 9.58328 9.20835C9.62494 9.16669 16.2499 1.70835 16.2499 1.70835C16.5833 1.33335 17.2083 1.29169 17.5833 1.62502C17.9583 1.95835 17.9999 2.58335 17.6666 2.95835L10.9999 10.4584C10.8333 10.625 10.8749 10.875 11.0416 11.0417C11.2083 11.2084 11.4583 11.1667 11.6249 11L16.9999 4.95835C17.3333 4.58335 17.9583 4.54169 18.3333 4.87502C18.7083 5.20835 18.7499 5.83335 18.4166 6.20835L13.0416 12.2917C12.8749 12.4584 12.9166 12.7084 13.0833 12.875C13.2499 13.0417 13.4999 13 13.6666 12.8334L17.4999 8.54169C17.8333 8.16669 18.4583 8.12502 18.8333 8.45835C19.2499 8.79169 19.2916 9.41669 18.9166 9.79169Z" fill="white"/>
</g>
<defs>
<clipPath id="clip0_45_15">
<rect width="20" height="20" fill="white" transform="translate(0 0.5)"/>
</clipPath>
</defs>
</svg>

<svg width="20" height="21" fill="none" xmlns="http://www.w3.org/2000/svg"><g clip-path="url(#a)"><path d="M19.417 7.833a1.556 1.556 0 0 0-.875-.416l.541-.625a1.738 1.738 0 0 0-.166-2.5 1.556 1.556 0 0 0-.875-.417l.291-.333a1.738 1.738 0 0 0-.166-2.5 1.738 1.738 0 0 0-2.5.166l-.542.625A1.623 1.623 0 0 0 14.583 1a1.738 1.738 0 0 0-2.5.167L9.333 4.25C9.208 3.208 8.542 2.792 8 2.292c-.167-.167-.417-.125-.583.041l-5.542 6.25c-2.708 2.875-2.417 7.459.583 10.125 3.209 2.834 7.584 1.75 8.667.709 1.208-.75 1-.667 8.417-9.042a1.825 1.825 0 0 0-.125-2.542ZM2.458 9.042l5.25-5.917c.417.375.709.667.75 1.292.042.416-.125.833-.375 1.125L6.25 7.583c-.167.167-.125.459.083.625 2.5 1.834-.041 7.959-1.75 10.875a7.194 7.194 0 0 1-1.583-1C.333 15.708.083 11.667 2.458 9.042Zm2.917 10.333c1.458-2.542 2.208-4.583 2.542-6.125.875.792 2.583 2.75 2.5 5.583-1.542.875-3.375 1.084-5.042.542Zm13.542-9.583c-7.5 8.458-7.042 8-7.667 8.5-.167-3.334-2.458-5.375-3.167-5.959.375-2.5-.208-3.708-.916-4.458.041-.042 5.5-6.208 5.5-6.208.333-.375.958-.417 1.333-.084.375.334.417.959.083 1.334l-5.125 5.75c-.166.166-.125.416.042.583.167.167.417.125.583-.042.042-.041 6.667-7.5 6.667-7.5.333-.375.958-.416 1.333-.083.375.333.417.958.084 1.333L11 10.458c-.167.167-.125.417.042.584.166.166.416.125.583-.042L17 4.958c.333-.375.958-.416 1.333-.083.375.333.417.958.084 1.333l-5.375 6.084c-.167.166-.125.416.041.583.167.167.417.125.584-.042L17.5 8.542c.333-.375.958-.417 1.333-.084a.9.9 0 0 1 .084 1.334Z" fill="#fff"/></g><defs><clipPath id="a"><path fill="#fff" transform="translate(0 .5)" d="M0 0h20v20H0z"/></clipPath></defs></svg>
